X:1
T:Title
%%score { 1 | 2 }
L:1/8
M:4/4
K:C
V:1 treble nm="Grand Piano"
V:2 bass 
V:1
 z4 z2[Q:1/4=100] [CE]2 | [EG]3 [FA] [EG]2 [CE]2 | [EG]6 [EG]2 | [FA]3 [FA] [EG]2 [CE]2 | %4
 [B,D]6 [DF]2 | [CE]3 [EG] [Ec]2 [Ge]2 |[M:9/8] d2 c- c A2- A A2 |[M:4/4] G3 c c2 B2 | %8
[M:3/4] [Ec]6 |[M:1/4] [EG]2 |[M:4/4] [Ge]3 [Ge] [Ge]2 [Gc]2 | [Gd]6 [Ge]2 | %12
 [Ac]3 [FA] [Ac]2 [FA]2 | [EG]6 [CE]2 | [DF]3 [^CE] [DF]2 [B,G]2 | E3 F G2 [Gc]2 | A3 A G2 B2 | %17
[M:3/4] [Ec]6 |] %18
V:2
 z4 z2 [C,G,]2 | [C,C]3 [C,C] [C,C]2 [C,G,]2 | [C,C]6 [C,C]2 | [F,C]3 [F,C] [C,C]2 [C,G,]2 | %4
 [G,,G,]6 [G,,G,]2 | [C,G,]3 [C,G,] [C,G,]2 [C,C]2 | %6
[M:9/8][K:treble] [F,A,F]2 [F,A,F]- [F,A,F] [F,CF]2- [F,CF] [F,CF]2 | %7
[M:4/4] [G,CE]3 [G,EG] [G,DF]2 [G,DF]2 |[M:3/4][K:bass] [C,C]6 |[M:1/4] [C,C]2 | %10
[M:4/4] [C,C]3 [C,C] [C,C]2 [E,C]2 | [G,B,]6 [C,C]2 | [F,C]3 [F,C] [F,C]2 [F,C]2 | [C,C]6 [C,G,]2 | %14
 [G,,G,]3 [G,,G,] [G,,G,]2 [G,,G,]2 | [C,G,C]3 [D,G,B,] [E,G,C]2 [E,G,]2 | %16
 [F,CF]3 [F,CF] [G,CE]2 [G,D]2 |[M:3/4] [C,G,]6 |] %18

